X: 36676
T: She Hasn't The Thing She Thought She Had
R: slide
M: 12/8
K: Dmajor
|:G|FGA D2d c2B A2G|FGA D2F E3EAG|
FGA D2d c2B A2G|FGA B2c d3d2:|
|:e|fed e2c dcB A3|fed e2f g3 f2e|
fed e2c dcB A2G|FGA B2c d3d2:|

